app/assets/v2/images/products/grants-logo.svg

<svg width="29" height="28" viewBox="0 0 29 28" fill="none" xmlns="http://www.w3.org/2000/svg">
<path fill-rule="evenodd" clip-rule="evenodd" d="M14.4749 12.0284C13.2223 12.0245 12.2173 11.0377 12.2213 9.81322C12.2253 8.60202 13.2418 7.62177 14.4877 7.62722C15.7335 7.63034 16.7401 8.61721 16.7365 9.83308C16.7345 11.0501 15.722 12.0304 14.4749 12.0284Z" fill="white"/>
<path fill-rule="evenodd" clip-rule="evenodd" d="M10.9291 15.1851C10.9291 15.117 10.9251 15.0535 10.9291 14.9904C10.9606 14.4448 11.1871 13.9778 11.5574 13.5775C11.8214 13.2912 12.1366 13.0657 12.4873 12.887C13.1863 12.5357 13.9293 12.3974 14.7074 12.4329C15.4284 12.4664 16.1078 12.651 16.7206 13.0272C17.1835 13.3088 17.5578 13.6706 17.8022 14.1539C17.9596 14.46 18.0363 14.7875 18.0327 15.1302C18.0315 15.1754 18.0187 15.1851 17.9744 15.1851H14.8632H11.005H10.9291Z" fill="white"/>
<path fill-rule="evenodd" clip-rule="evenodd" d="M12.0874 16.0274L14.4844 12.3011L16.6566 15.8303" fill="white"/>
<path fill-rule="evenodd" clip-rule="evenodd" d="M14.4019 13.3731C14.4514 13.3606 14.4494 13.4066 14.461 13.4268C14.9044 14.1403 15.3446 14.853 15.7848 15.5653C16.0763 16.0389 16.3679 16.5113 16.6635 16.9821C16.6971 17.0374 16.6891 17.0596 16.634 17.0912C15.9166 17.5017 15.2016 17.9141 14.4866 18.3285C14.4335 18.3592 14.3939 18.3553 14.3428 18.3246C13.6278 17.9102 12.9088 17.4997 12.1926 17.0857C12.1738 17.0729 12.1047 17.0694 12.1582 17.0156C12.1838 17.0269 12.2038 17.0106 12.2242 17.0008C12.9304 16.6889 13.6378 16.375 14.3448 16.0638C14.4019 16.0389 14.4139 16.005 14.4139 15.9497C14.4127 15.119 14.4127 14.2883 14.4127 13.4584C14.4127 13.4296 14.4179 13.4 14.4019 13.3731Z" fill="white"/>
<path fill-rule="evenodd" clip-rule="evenodd" d="M14.4019 13.3731C14.4179 13.4 14.4127 13.4296 14.4127 13.4584C14.4127 14.2883 14.4127 15.119 14.4139 15.9497C14.4139 16.005 14.4019 16.0389 14.3448 16.0638C13.6378 16.375 12.9304 16.6889 12.2242 17.0009C12.2038 17.0106 12.1838 17.027 12.1583 17.0157C12.2094 16.879 12.3001 16.7648 12.3772 16.6398C13.0386 15.5665 13.7009 14.4947 14.3644 13.423C14.3764 13.4047 14.3903 13.3902 14.4019 13.3731Z" fill="#24E899"/>
<path fill-rule="evenodd" clip-rule="evenodd" d="M14.4128 18.7817C15.1554 18.3553 15.8971 17.9304 16.6417 17.5035C16.6565 17.5487 16.6269 17.5666 16.6101 17.5881C15.8971 18.5722 15.1789 19.5563 14.4624 20.5409C14.4492 20.5584 14.4444 20.5993 14.402 20.5814C14.4196 20.5456 14.4128 20.5086 14.4128 20.47V18.7817Z" fill="white"/>
<path fill-rule="evenodd" clip-rule="evenodd" d="M14.4129 18.7817V20.47C14.4129 20.5086 14.4197 20.5456 14.4021 20.5814C14.2367 20.3832 14.0949 20.1701 13.9431 19.9625C13.3551 19.1591 12.7708 18.3553 12.184 17.5514C12.178 17.5405 12.1732 17.53 12.166 17.5207C12.17 17.5141 12.176 17.5074 12.18 17.5004C12.9246 17.928 13.6683 18.3553 14.4129 18.7817Z" fill="#24E899"/>
<path fill-rule="evenodd" clip-rule="evenodd" d="M14.4049 18.3896L14.323 15.98L16.7148 17.0386" fill="#24E899"/>
<path fill-rule="evenodd" clip-rule="evenodd" d="M1.84198 13.924C1.84198 20.5677 7.3862 25.9737 14.201 25.9737C21.0151 25.9737 26.5593 20.5677 26.5593 13.924C26.5593 7.27958 21.0151 1.87476 14.201 1.87476C7.3862 1.87476 1.84198 7.27958 1.84198 13.924ZM3.58154 13.924C3.58154 8.21504 8.34445 3.57004 14.201 3.57004C20.0564 3.57004 24.8209 8.21504 24.8209 13.924C24.8209 19.6334 20.0564 24.2784 14.201 24.2784C8.34445 24.2784 3.58154 19.6334 3.58154 13.924Z" fill="#24E899"/>
<path fill-rule="evenodd" clip-rule="evenodd" d="M-6.10352e-05 13.8437C-6.10352e-05 21.4571 6.35302 27.6513 14.1617 27.6513C21.9703 27.6513 28.3234 21.4571 28.3234 13.8437C28.3234 6.22986 21.9703 0.0360107 14.1617 0.0360107C6.35302 0.0360107 -6.10352e-05 6.22986 -6.10352e-05 13.8437ZM2.17289 13.8437C2.17289 7.39783 7.55054 2.15502 14.1617 2.15502C20.7728 2.15502 26.1504 7.39783 26.1504 13.8437C26.1504 20.2891 20.7728 25.5323 14.1617 25.5323C7.55054 25.5323 2.17289 20.2891 2.17289 13.8437Z" fill="white"/>
</svg>

<svg width="29" height="28" viewBox="0 0 29 28" fill="none" xmlns="http://www.w3.org/2000/svg"><path fill-rule="evenodd" clip-rule="evenodd" d="M14.475 12.028c-1.253-.004-2.258-.99-2.254-2.215.004-1.211 1.02-2.191 2.267-2.186 1.245.003 2.252.99 2.248 2.206-.002 1.217-1.014 2.197-2.261 2.195zM10.93 15.185c0-.068-.005-.132 0-.195.03-.545.257-1.012.627-1.412.264-.287.58-.512.93-.691a4.41 4.41 0 0 1 2.22-.454c.721.033 1.4.218 2.014.594.462.282.837.644 1.081 1.127.158.306.234.633.23.976 0 .045-.013.055-.058.055H10.93z" fill="#fff"/><path fill-rule="evenodd" clip-rule="evenodd" d="M12.087 16.027l2.397-3.726 2.173 3.53" fill="#fff"/><path fill-rule="evenodd" clip-rule="evenodd" d="M14.402 13.373c.05-.012.047.034.059.054.443.713.884 1.426 1.324 2.138.291.474.583.946.878 1.417.034.055.026.078-.029.11-.717.41-1.432.822-2.147 1.236-.053.031-.093.027-.144-.003-.715-.415-1.434-.825-2.15-1.24-.02-.012-.088-.016-.035-.07.026.012.046-.004.066-.014l2.12-.937c.058-.025.07-.059.07-.114l-.001-2.492c0-.028.005-.058-.011-.085z" fill="#fff"/><path fill-rule="evenodd" clip-rule="evenodd" d="M14.402 13.373c.016.027.01.057.01.085 0 .83 0 1.661.002 2.492 0 .055-.012.089-.07.114l-2.12.937c-.02.01-.04.026-.066.015.051-.137.142-.251.22-.376.66-1.074 1.323-2.145 1.986-3.217.012-.018.026-.033.038-.05z" fill="#24E899"/><path fill-rule="evenodd" clip-rule="evenodd" d="M14.413 18.782c.742-.427 1.484-.852 2.229-1.279.015.046-.015.064-.032.085-.713.984-1.431 1.968-2.148 2.953-.013.017-.018.058-.06.04.018-.035.01-.072.01-.111v-1.688z" fill="#fff"/><path fill-rule="evenodd" clip-rule="evenodd" d="M14.413 18.782v1.688c0 .039.007.076-.01.111-.166-.198-.308-.41-.46-.619-.588-.803-1.172-1.607-1.759-2.41-.006-.011-.01-.022-.018-.031l.014-.02 2.233 1.28zM14.405 18.39l-.082-2.41 2.392 1.059" fill="#24E899"/><path fill-rule="evenodd" clip-rule="evenodd" d="M1.842 13.924c0 6.644 5.544 12.05 12.359 12.05 6.814 0 12.358-5.406 12.358-12.05 0-6.644-5.544-12.05-12.358-12.05-6.815 0-12.359 5.406-12.359 12.05zm1.74 0C3.582 8.215 8.344 3.57 14.2 3.57c5.855 0 10.62 4.645 10.62 10.354 0 5.71-4.765 10.354-10.62 10.354-5.857 0-10.62-4.645-10.62-10.354z" fill="#24E899"/><path fill-rule="evenodd" clip-rule="evenodd" d="M0 13.844C0 21.457 6.353 27.65 14.162 27.65c7.808 0 14.161-6.194 14.161-13.807C28.323 6.23 21.97.036 14.162.036 6.353.036 0 6.23 0 13.844zm2.173 0c0-6.446 5.378-11.689 11.989-11.689 6.61 0 11.988 5.243 11.988 11.689 0 6.445-5.377 11.688-11.988 11.688S2.172 20.29 2.172 13.844z" fill="#fff"/></svg>
